X: 20688
T: Johnnie MacDonald's
R: reel
M: 4/4
K: Dmajor
|:~d3A BGGA|~d3A feef|~d3A BGGg|1 fgaf gecA:|2 faec ~d3g||
faaf geeg|faad cAAg|faaf geeg|fdec ~d3g|
faaf geeg|faad cAAc|Bdce dfBd|ceAa fddA||
|:~d3A GAAB|~d3A Bgfe|~d3A GAAB|1 dABg fdec:|2 Aceg fdde||
fdcd Adfa|gece Aceg|fdcd Adfa|gecA ~d3e|
fdcd Adfa|gece Aceg|fdcd ed~A2|Aceg fddA||

